; generated by PrusaSlicer 2.5.0+MacOS-x64 on 2023-01-25 at 18:19:46 UTC


;
;
; 

; external perimeters extrusion width = 0.45mm
; perimeters extrusion width = 0.45mm
; infill extrusion width = 0.45mm
; solid infill extrusion width = 0.45mm
; top infill extrusion width = 0.40mm
; first layer extrusion width = 0.42mm

M73 P0 R144
M73 Q0 S145
M201 X1000 Y1000 Z200 E5000 ; sets maximum accelerations, mm/sec^2
M203 X200 Y200 Z12 E120 ; sets maximum feedrates, mm / sec
M204 P1250 R1250 T1250 ; sets acceleration (P, T) and retract acceleration (R), mm/sec^2
M205 X8.00 Y8.00 Z0.40 E4.50 ; sets the jerk limits, mm/sec
M205 S0 T0 ; sets the minimum extruding and travel feed rate, mm/sec
M107
;TYPE:Custom
M862.3 P "MK3S" ; printer model check
M862.1 P0.4 ; nozzle diameter check
M115 U3.11.0 ; tell printer latest fw version
G90 ; use absolute coordinates
M83 ; extruder relative mode
M104 S215 ; set extruder temp
M140 S60 ; set bed temp
M190 S60 ; wait for bed temp
M109 S215 ; wait for extruder temp
G28 W ; home all without mesh bed level
G80 ; mesh bed leveling
G1 Z0.2 F720
G1 Y-3 F1000 ; go outside print area
G92 E0
G1 X60 E9 F1000 ; intro line
G1 X100 E12.5 F1000 ; intro line
G92 E0
M221 S95

; Don't change E values below. Excessive value can damage the printer.
M907 E430 ; set extruder motor current
G21 ; set units to millimeters
G90 ; use absolute coordinates
M83 ; use relative distances for extrusion
M900 K0.05 ; Filament gcode LA 1.5
M900 K30 ; Filament gcode LA 1.0
M107
;LAYER_CHANGE
;Z:0.2
;HEIGHT:0.2
;BEFORE_LAYER_CHANGE
G92 E0.0
;0.2


G1 E-.8 F2100
G1 Z.4 F720
;AFTER_LAYER_CHANGE
;0.2
; printing object tinyKeys_Gehause_v0-1 id:0 copy 0
G1 X28.361 Y71.155 F10800
G1 Z.2 F720
G1 E.8 F2100
M204 S800
;TYPE:Perimeter
;WIDTH:0.419999
G1 F1200
G1 X226.787 Y71.155 E6.22149
G1 X226.787 Y144.581 E2.30221
G1 X28.361 Y144.581 E6.22149
G1 X28.361 Y71.215 E2.30033
M204 S1000
G1 X27.984 Y70.778 F10800
M204 S800
;TYPE:External perimeter
G1 F1200
G1 X227.164 Y70.778 E6.24514
G1 X227.164 Y144.958 E2.32586
M73 Q0 S144
G1 X27.984 Y144.958 E6.24514
M73 P0 R143
G1 X27.984 Y70.838 E2.32398
M204 S1000
G1 X28.382 Y70.826 F10800
;WIPE_START
G1 F8640
G1 X31.276 Y70.837 E-.76
;WIPE_END
G1 E-.04 F2100
G1 Z.6 F720
G1 X225.912 Y71.268 F10800
G1 Z.2 F720
G1 E.8 F2100
M204 S800
;TYPE:Solid infill
;WIDTH:0.420054
G1 F1200
G1 X226.504 Y71.861 E.02629
G1 X226.504 Y72.394 E.01673
G1 X225.548 Y71.438 E.04241
G1 X225.015 Y71.438 E.01673
G1 X226.504 Y72.928 E.06607
G1 X226.504 Y73.461 E.01673
G1 X224.481 Y71.438 E.08972
G1 X223.948 Y71.438 E.01673
G1 X226.504 Y73.994 E.11337
G1 X226.504 Y74.528 E.01673
G1 X223.415 Y71.438 E.13702
G1 X222.881 Y71.438 E.01673
G1 X226.504 Y75.061 E.16068
G1 X226.504 Y75.594 E.01673
G1 X222.348 Y71.438 E.18433
G1 X221.815 Y71.438 E.01673
G1 X226.504 Y76.128 E.20798
G1 X226.504 Y76.661 E.01673
G1 X221.281 Y71.438 E.23164
G1 X220.748 Y71.438 E.01673
G1 X226.504 Y77.194 E.25529
G1 X226.504 Y77.728 E.01673
G1 X220.215 Y71.438 E.27894
G1 X219.681 Y71.438 E.01673
G1 X226.504 Y78.261 E.3026
G1 X226.504 Y78.795 E.01673
G1 X219.148 Y71.438 E.32625
G1 X218.615 Y71.438 E.01673
G1 X226.504 Y79.328 E.3499
G1 X226.504 Y79.861 E.01673
G1 X218.081 Y71.438 E.37355
G1 X217.548 Y71.438 E.01673
G1 X226.504 Y80.395 E.39721
G1 X226.504 Y80.928 E.01673
G1 X217.015 Y71.438 E.42086
G1 X216.481 Y71.438 E.01673
G1 X226.504 Y81.461 E.44451
G1 X226.504 Y81.995 E.01673
G1 X215.948 Y71.438 E.46817
G1 X215.415 Y71.438 E.01673
G1 X226.504 Y82.528 E.49182
G1 X226.504 Y83.061 E.01673
G1 X214.881 Y71.438 E.51547
G1 X214.348 Y71.438 E.01673
G1 X226.504 Y83.595 E.53912
G1 X226.504 Y84.128 E.01673
G1 X213.814 Y71.438 E.56278
G1 X213.281 Y71.438 E.01673
G1 X226.504 Y84.661 E.58643
G1 X226.504 Y85.195 E.01673
G1 X212.748 Y71.438 E.61008
G1 X212.214 Y71.438 E.01673
G1 X226.504 Y85.728 E.63374
G1 X226.504 Y86.261 E.01673
G1 X211.681 Y71.438 E.65739
G1 X211.148 Y71.438 E.01673
G1 X226.504 Y86.795 E.68104
G1 X226.504 Y87.328 E.01673
G1 X210.614 Y71.438 E.7047
G1 X210.081 Y71.438 E.01673
G1 X226.504 Y87.861 E.72835
G1 X226.504 Y88.395 E.01673
G1 X209.548 Y71.438 E.752
G1 X209.014 Y71.438 E.01673
G1 X226.504 Y88.928 E.77565
G1 X226.504 Y89.461 E.01673
G1 X208.481 Y71.438 E.79931
G1 X207.948 Y71.438 E.01673
M73 Q1 S144
G1 X226.504 Y89.995 E.82296
M73 P1 R143
G1 X226.504 Y90.528 E.01673
G1 X207.414 Y71.438 E.84661
G1 X206.881 Y71.438 E.01673
G1 X226.504 Y91.062 E.87027
G1 X226.504 Y91.595 E.01673
G1 X206.348 Y71.438 E.89392
G1 X205.814 Y71.438 E.01673
G1 X226.504 Y92.128 E.91757
G1 X226.504 Y92.662 E.01673
G1 X205.281 Y71.438 E.94123
G1 X204.748 Y71.438 E.01673
G1 X226.504 Y93.195 E.96488
G1 X226.504 Y93.728 E.01673
G1 X204.214 Y71.438 E.98853
G1 X203.681 Y71.438 E.01673
G1 X226.504 Y94.262 E1.01218
G1 X226.504 Y94.795 E.01673
M73 Q1 S143
G1 X203.147 Y71.438 E1.03584
G1 X202.614 Y71.438 E.01673
G1 X226.504 Y95.328 E1.05949
G1 X226.504 Y95.862 E.01673
G1 X202.081 Y71.438 E1.08314
G1 X201.547 Y71.438 E.01673
G1 X226.504 Y96.395 E1.1068
G1 X226.504 Y96.928 E.01673
M73 P1 R142
G1 X201.014 Y71.438 E1.13045
G1 X200.481 Y71.438 E.01673
G1 X226.504 Y97.462 E1.1541
G1 X226.504 Y97.995 E.01673
G1 X199.947 Y71.438 E1.17775
G1 X199.414 Y71.438 E.01673
G1 X226.504 Y98.528 E1.20141
G1 X226.504 Y99.062 E.01673
G1 X198.881 Y71.438 E1.22506
G1 X198.347 Y71.438 E.01673
G1 X226.504 Y99.595 E1.24871
G1 X226.504 Y100.128 E.01673
G1 X197.814 Y71.438 E1.27237
G1 X197.281 Y71.438 E.01673
G1 X226.504 Y100.662 E1.29602
G1 X226.504 Y101.195 E.01673
G1 X196.747 Y71.438 E1.31967
G1 X196.214 Y71.438 E.01673
G1 X226.504 Y101.728 E1.34333
G1 X226.504 Y102.262 E.01673
G1 X195.681 Y71.438 E1.36698
G1 X195.147 Y71.438 E.01673
G1 X226.504 Y102.795 E1.39063
G1 X226.504 Y103.329 E.01673
G1 X194.614 Y71.438 E1.41428
G1 X194.081 Y71.438 E.01673
G1 X226.504 Y103.862 E1.43794
G1 X226.504 Y104.395 E.01673
G1 X193.547 Y71.438 E1.46159
G1 X193.014 Y71.438 E.01673
G1 X226.504 Y104.929 E1.48524
G1 X226.504 Y105.462 E.01673
G1 X192.481 Y71.438 E1.5089
G1 X191.947 Y71.438 E.01673
G1 X226.504 Y105.995 E1.53255
G1 X226.504 Y106.529 E.01673
G1 X191.414 Y71.438 E1.5562
G1 X190.88 Y71.438 E.01673
G1 X226.504 Y107.062 E1.57985
G1 X226.504 Y107.595 E.01673
G1 X190.347 Y71.438 E1.60351
G1 X189.814 Y71.438 E.01673
G1 X226.504 Y108.129 E1.62716
G1 X226.504 Y108.662 E.01673
G1 X189.28 Y71.438 E1.65081
G1 X188.747 Y71.438 E.01673
G1 X226.504 Y109.195 E1.67447
G1 X226.504 Y109.729 E.01673
M73 Q1 S142
G1 X188.214 Y71.438 E1.69812
G1 X187.68 Y71.438 E.01673
G1 X226.504 Y110.262 E1.72177
G1 X226.504 Y110.795 E.01673
M73 P1 R141
G1 X187.147 Y71.438 E1.74543
G1 X186.614 Y71.438 E.01673
G1 X226.504 Y111.329 E1.76908
G1 X226.504 Y111.862 E.01673
G1 X186.08 Y71.438 E1.79273
G1 X185.547 Y71.438 E.01673
M73 P2 R141
M73 Q2 S142
G1 X226.504 Y112.395 E1.81638
G1 X226.504 Y112.929 E.01673
G1 X185.014 Y71.438 E1.84004
G1 X184.48 Y71.438 E.01673
G1 X226.504 Y113.462 E1.86369
G1 X226.504 Y113.995 E.01673
G1 X183.947 Y71.438 E1.88734
G1 X183.414 Y71.438 E.01673
G1 X226.504 Y114.529 E1.911
G1 X226.504 Y115.062 E.01673
G1 X182.88 Y71.438 E1.93465
G1 X182.347 Y71.438 E.01673
G1 X226.504 Y115.596 E1.9583
G1 X226.504 Y116.129 E.01673
G1 X181.814 Y71.438 E1.98196
G1 X181.28 Y71.438 E.01673
G1 X226.504 Y116.662 E2.00561
G1 X226.504 Y117.196 E.01673
G1 X180.747 Y71.438 E2.02926
G1 X180.214 Y71.438 E.01673
G1 X226.504 Y117.729 E2.05291
G1 X226.504 Y118.262 E.01673
G1 X179.68 Y71.438 E2.07657
G1 X179.147 Y71.438 E.01673
G1 X226.504 Y118.796 E2.10022
G1 X226.504 Y119.329 E.01673
G1 X178.613 Y71.438 E2.12387
G1 X178.08 Y71.438 E.01673
M73 Q2 S141
G1 X226.504 Y119.862 E2.14753
G1 X226.504 Y120.396 E.01673
G1 X177.547 Y71.438 E2.17118
G1 X177.013 Y71.438 E.01673
M73 P2 R140
G1 X226.504 Y120.929 E2.19483
G1 X226.504 Y121.462 E.01673
G1 X176.48 Y71.438 E2.21848
G1 X175.947 Y71.438 E.01673
G1 X226.504 Y121.996 E2.24214
G1 X226.504 Y122.529 E.01673
G1 X175.413 Y71.438 E2.26579
G1 X174.88 Y71.438 E.01673
G1 X226.504 Y123.062 E2.28944
G1 X226.504 Y123.596 E.01673
G1 X174.347 Y71.438 E2.3131
G1 X173.813 Y71.438 E.01673
G1 X226.504 Y124.129 E2.33675
G1 X226.504 Y124.662 E.01673
G1 X173.28 Y71.438 E2.3604
G1 X172.747 Y71.438 E.01673
G1 X226.504 Y125.196 E2.38406
G1 X226.504 Y125.729 E.01673
M73 P3 R140
G1 X172.213 Y71.438 E2.40771
G1 X171.68 Y71.438 E.01673
M73 Q3 S141
G1 X226.504 Y126.262 E2.43136
G1 X226.504 Y126.796 E.01673
G1 X171.147 Y71.438 E2.45501
G1 X170.613 Y71.438 E.01673
G1 X226.504 Y127.329 E2.47867
G1 X226.504 Y127.863 E.01673
G1 X170.08 Y71.438 E2.50232
G1 X169.547 Y71.438 E.01673
M73 Q3 S140
G1 X226.504 Y128.396 E2.52597
G1 X226.504 Y128.929 E.01673
G1 X169.013 Y71.438 E2.54963
G1 X168.48 Y71.438 E.01673
M73 P3 R139
G1 X226.504 Y129.463 E2.57328
G1 X226.504 Y129.996 E.01673
G1 X167.947 Y71.438 E2.59693
G1 X167.413 Y71.438 E.01673
G1 X226.504 Y130.529 E2.62058
G1 X226.504 Y131.063 E.01673
G1 X166.88 Y71.438 E2.64424
G1 X166.346 Y71.438 E.01673
G1 X226.504 Y131.596 E2.66789
G1 X226.504 Y132.129 E.01673
G1 X165.813 Y71.438 E2.69154
G1 X165.28 Y71.438 E.01673
G1 X226.504 Y132.663 E2.7152
G1 X226.504 Y133.196 E.01673
G1 X164.746 Y71.438 E2.73885
G1 X164.213 Y71.438 E.01673
G1 X226.504 Y133.729 E2.7625
G1 X226.504 Y134.263 E.01673
G1 X163.68 Y71.438 E2.78616
G1 X163.146 Y71.438 E.01673
G1 X226.504 Y134.796 E2.80981
G1 X226.504 Y135.329 E.01673
G1 X162.613 Y71.438 E2.83346
G1 X162.08 Y71.438 E.01673
M73 Q3 S139
G1 X226.504 Y135.863 E2.85711
G1 X226.504 Y136.396 E.01673
G1 X161.546 Y71.438 E2.88077
G1 X161.013 Y71.438 E.01673
M73 P4 R138
M73 Q4 S139
G1 X226.504 Y136.929 E2.90442
G1 X226.504 Y137.463 E.01673
G1 X160.48 Y71.438 E2.92807
G1 X159.946 Y71.438 E.01673
G1 X226.504 Y137.996 E2.95173
G1 X226.504 Y138.529 E.01673
G1 X159.413 Y71.438 E2.97538
G1 X158.88 Y71.438 E.01673
G1 X226.504 Y139.063 E2.99903
G1 X226.504 Y139.596 E.01673
G1 X158.346 Y71.438 E3.02269
G1 X157.813 Y71.438 E.01673
G1 X226.504 Y140.13 E3.04634
G1 X226.504 Y140.663 E.01673
G1 X157.28 Y71.438 E3.06999
G1 X156.746 Y71.438 E.01673
G1 X226.504 Y141.196 E3.09364
G1 X226.504 Y141.73 E.01673
G1 X156.213 Y71.438 E3.1173
G1 X155.68 Y71.438 E.01673
G1 X226.504 Y142.263 E3.14095
G1 X226.504 Y142.796 E.01673
M73 Q4 S138
G1 X155.146 Y71.438 E3.1646
G1 X154.613 Y71.438 E.01673
M73 P4 R137
G1 X226.504 Y143.33 E3.18826
G1 X226.504 Y143.863 E.01673
G1 X154.079 Y71.438 E3.21191
G1 X153.546 Y71.438 E.01673
G1 X226.406 Y144.298 E3.23121
G1 X225.873 Y144.298 E.01673
G1 X153.013 Y71.438 E3.23121
G1 X152.479 Y71.438 E.01673
G1 X225.34 Y144.298 E3.23121
G1 X224.806 Y144.298 E.01673
M73 P5 R137
G1 X151.946 Y71.438 E3.23121
G1 X151.413 Y71.438 E.01673
M73 Q5 S138
G1 X224.273 Y144.298 E3.23121
G1 X223.74 Y144.298 E.01673
G1 X150.879 Y71.438 E3.23121
G1 X150.346 Y71.438 E.01673
G1 X223.206 Y144.298 E3.23121
G1 X222.673 Y144.298 E.01673
G1 X149.813 Y71.438 E3.23121
G1 X149.279 Y71.438 E.01673
M73 Q5 S137
G1 X222.14 Y144.298 E3.23121
G1 X221.606 Y144.298 E.01673
G1 X148.746 Y71.438 E3.23121
G1 X148.213 Y71.438 E.01673
M73 P5 R136
G1 X221.073 Y144.298 E3.23121
G1 X220.54 Y144.298 E.01673
G1 X147.679 Y71.438 E3.23121
G1 X147.146 Y71.438 E.01673
G1 X220.006 Y144.298 E3.23121
G1 X219.473 Y144.298 E.01673
G1 X146.613 Y71.438 E3.23121
G1 X146.079 Y71.438 E.01673
G1 X218.94 Y144.298 E3.23121
G1 X218.406 Y144.298 E.01673
G1 X145.546 Y71.438 E3.23121
G1 X145.013 Y71.438 E.01673
G1 X217.873 Y144.298 E3.23121
G1 X217.339 Y144.298 E.01673
G1 X144.479 Y71.438 E3.23121
G1 X143.946 Y71.438 E.01673
G1 X216.806 Y144.298 E3.23121
G1 X216.273 Y144.298 E.01673
G1 X143.413 Y71.438 E3.23121
G1 X142.879 Y71.438 E.01673
M73 P6 R136
M73 Q5 S136
G1 X215.739 Y144.298 E3.23121
G1 X215.206 Y144.298 E.01673
M73 P6 R135
M73 Q6 S136
G1 X142.346 Y71.438 E3.23121
G1 X141.812 Y71.438 E.01673
G1 X214.673 Y144.298 E3.23121
G1 X214.139 Y144.298 E.01673
G1 X141.279 Y71.438 E3.23121
G1 X140.746 Y71.438 E.01673
G1 X213.606 Y144.298 E3.23121
G1 X213.073 Y144.298 E.01673
G1 X140.212 Y71.438 E3.23121
G1 X139.679 Y71.438 E.01673
G1 X212.539 Y144.298 E3.23121
G1 X212.006 Y144.298 E.01673
G1 X139.146 Y71.438 E3.23121
G1 X138.612 Y71.438 E.01673
G1 X211.473 Y144.298 E3.23121
G1 X210.939 Y144.298 E.01673
G1 X138.079 Y71.438 E3.23121
G1 X137.546 Y71.438 E.01673
G1 X210.406 Y144.298 E3.23121
G1 X209.873 Y144.298 E.01673
M73 Q6 S135
G1 X137.012 Y71.438 E3.23121
G1 X136.479 Y71.438 E.01673
G1 X209.339 Y144.298 E3.23121
G1 X208.806 Y144.298 E.01673
M73 P6 R134
G1 X135.946 Y71.438 E3.23121
G1 X135.412 Y71.438 E.01673
G1 X208.273 Y144.298 E3.23121
G1 X207.739 Y144.298 E.01673
G1 X134.879 Y71.438 E3.23121
G1 X134.346 Y71.438 E.01673
G1 X207.206 Y144.298 E3.23121
G1 X206.673 Y144.298 E.01673
M73 P7 R134
M73 Q7 S135
G1 X133.812 Y71.438 E3.23121
G1 X133.279 Y71.438 E.01673
G1 X206.139 Y144.298 E3.23121
G1 X205.606 Y144.298 E.01673
G1 X132.746 Y71.438 E3.23121
G1 X132.212 Y71.438 E.01673
G1 X205.072 Y144.298 E3.23121
G1 X204.539 Y144.298 E.01673
G1 X131.679 Y71.438 E3.23121
G1 X131.146 Y71.438 E.01673
G1 X204.006 Y144.298 E3.23121
G1 X203.472 Y144.298 E.01673
M73 Q7 S134
G1 X130.612 Y71.438 E3.23121
G1 X130.079 Y71.438 E.01673
M73 P7 R133
G1 X202.939 Y144.298 E3.23121
G1 X202.406 Y144.298 E.01673
G1 X129.545 Y71.438 E3.23121
G1 X129.012 Y71.438 E.01673
G1 X201.872 Y144.298 E3.23121
G1 X201.339 Y144.298 E.01673
G1 X128.479 Y71.438 E3.23121
G1 X127.945 Y71.438 E.01673
G1 X200.806 Y144.298 E3.23121
G1 X200.272 Y144.298 E.01673
G1 X127.412 Y71.438 E3.23121
G1 X126.879 Y71.438 E.01673
G1 X199.739 Y144.298 E3.23121
G1 X199.206 Y144.298 E.01673
G1 X126.345 Y71.438 E3.23121
G1 X125.812 Y71.438 E.01673
G1 X198.672 Y144.298 E3.23121
G1 X198.139 Y144.298 E.01673
G1 X125.279 Y71.438 E3.23121
G1 X124.745 Y71.438 E.01673
M73 P8 R133
M73 Q8 S134
G1 X197.606 Y144.298 E3.23121
G1 X197.072 Y144.298 E.01673
M73 Q8 S133
G1 X124.212 Y71.438 E3.23121
G1 X123.679 Y71.438 E.01673
M73 P8 R132
G1 X196.539 Y144.298 E3.23121
G1 X196.006 Y144.298 E.01673
G1 X123.145 Y71.438 E3.23121
G1 X122.612 Y71.438 E.01673
G1 X195.472 Y144.298 E3.23121
G1 X194.939 Y144.298 E.01673
G1 X122.079 Y71.438 E3.23121
G1 X121.545 Y71.438 E.01673
G1 X194.406 Y144.298 E3.23121
G1 X193.872 Y144.298 E.01673
G1 X121.012 Y71.438 E3.23121
G1 X120.479 Y71.438 E.01673
G1 X193.339 Y144.298 E3.23121
G1 X192.805 Y144.298 E.01673
G1 X119.945 Y71.438 E3.23121
G1 X119.412 Y71.438 E.01673
G1 X192.272 Y144.298 E3.23121
G1 X191.739 Y144.298 E.01673
G1 X118.879 Y71.438 E3.23121
G1 X118.345 Y71.438 E.01673
M73 Q8 S132
G1 X191.205 Y144.298 E3.23121
G1 X190.672 Y144.298 E.01673
M73 P8 R131
G1 X117.812 Y71.438 E3.23121
G1 X117.278 Y71.438 E.01673
G1 X190.139 Y144.298 E3.23121
G1 X189.605 Y144.298 E.01673
G1 X116.745 Y71.438 E3.23121
G1 X116.212 Y71.438 E.01673
M73 P9 R131
G1 X189.072 Y144.298 E3.23121
G1 X188.539 Y144.298 E.01673
M73 Q9 S132
G1 X115.678 Y71.438 E3.23121
G1 X115.145 Y71.438 E.01673
G1 X188.005 Y144.298 E3.23121
G1 X187.472 Y144.298 E.01673
G1 X114.612 Y71.438 E3.23121
G1 X114.078 Y71.438 E.01673
G1 X186.939 Y144.298 E3.23121
G1 X186.405 Y144.298 E.01673
G1 X113.545 Y71.438 E3.23121
G1 X113.012 Y71.438 E.01673
G1 X185.872 Y144.298 E3.23121
G1 X185.339 Y144.298 E.01673
G1 X112.478 Y71.438 E3.23121
G1 X111.945 Y71.438 E.01673
M73 Q9 S131
G1 X184.805 Y144.298 E3.23121
G1 X184.272 Y144.298 E.01673
M73 P9 R130
G1 X111.412 Y71.438 E3.23121
G1 X110.878 Y71.438 E.01673
G1 X183.739 Y144.298 E3.23121
G1 X183.205 Y144.298 E.01673
G1 X110.345 Y71.438 E3.23121
G1 X109.812 Y71.438 E.01673
G1 X182.672 Y144.298 E3.23121
G1 X182.138 Y144.298 E.01673
G1 X109.278 Y71.438 E3.23121
G1 X108.745 Y71.438 E.01673
G1 X181.605 Y144.298 E3.23121
G1 X181.072 Y144.298 E.01673
G1 X108.212 Y71.438 E3.23121
G1 X107.678 Y71.438 E.01673
G1 X180.538 Y144.298 E3.23121
G1 X180.005 Y144.298 E.01673
M73 P10 R130
G1 X107.145 Y71.438 E3.23121
G1 X106.612 Y71.438 E.01673
M73 Q10 S131
G1 X179.472 Y144.298 E3.23121
G1 X178.938 Y144.298 E.01673
M73 Q10 S130
G1 X106.078 Y71.438 E3.23121
G1 X105.545 Y71.438 E.01673
M73 P10 R129
G1 X178.405 Y144.298 E3.23121
G1 X177.872 Y144.298 E.01673
G1 X105.011 Y71.438 E3.23121
G1 X104.478 Y71.438 E.01673
